icons/nose_fill.svg

<svg width="48" height="48" viewBox="0 0 48 48" fill="none" xmlns="http://www.w3.org/2000/svg">
<path d="M30.915 6.40344C31.1378 5.8981 30.9088 5.30781 30.4035 5.085C29.8981 4.86219 29.3078 5.09123 29.085 5.59657L29.0812 5.60522L29.0681 5.63468C29.0563 5.66113 29.0384 5.70109 29.0146 5.75381C28.967 5.85925 28.8957 6.01573 28.8022 6.21734C28.6153 6.62061 28.3397 7.20416 27.987 7.92086C27.2812 9.35509 26.2687 11.3182 25.0421 13.4346C22.5625 17.713 19.3008 22.451 16.0091 24.824C11.6647 27.9421 10.3595 31.7759 11.2741 34.9855C12.1703 38.1305 15.139 40.3726 18.6437 40.3726H21.8726C23.3237 40.3726 24.5 41.5489 24.5 43H26.5C26.5 40.4443 24.4282 38.3726 21.8726 38.3726H21.2969C21.5215 38.0367 21.8795 37.7078 22.4227 37.4545C23.4172 36.9907 25.1029 36.755 27.7739 37.3749C28.3119 37.4998 28.8493 37.1649 28.9741 36.6269C29.099 36.0889 28.7641 35.5515 28.2261 35.4267C25.2972 34.7469 23.1162 34.9244 21.5774 35.6419C20.2196 36.2751 19.4217 37.306 19.1156 38.3726H18.6437C15.9969 38.3726 13.8393 36.6893 13.1976 34.4374C12.5743 32.2502 13.3194 29.2159 17.1762 26.4481L17.1779 26.4469C20.8478 23.8016 24.2893 18.7222 26.7725 14.4375C28.0274 12.2722 29.0613 10.2673 29.7815 8.80397C30.1417 8.07185 30.424 7.4742 30.6168 7.05848C30.7131 6.85059 30.7871 6.68811 30.8373 6.57698C30.8624 6.52142 30.8816 6.47868 30.8946 6.44951L30.9095 6.41602L30.9145 6.4046L30.915 6.40344C30.9151 6.40321 30.915 6.40344 30 6.00001L30.915 6.40344Z" fill="black"/>
<path d="M35.7557 34.991C35.2367 37.0815 33.9392 38.9698 32.5289 39.8487L31.4711 38.1513C32.3531 37.6017 33.3938 36.2043 33.8147 34.5091C34.2236 32.8618 34.0101 31.101 32.655 29.6936L34.0958 28.3064C36.0417 30.3276 36.2866 32.8526 35.7557 34.991Z" fill="black"/>
</svg>

<svg
  xmlns="http://www.w3.org/2000/svg"
  width="24"
  height="24"
  viewBox="0 0 24 24"
  fill="none"
  stroke="currentColor"
  stroke-width="2"
  stroke-linecap="round"
  stroke-linejoin="round"
>
  <path d="M30.915 6.403a1 1 0 1 0-1.83-.806l-.004.008-.013.03a30 30 0 0 1-.266.582 93.432 93.432 0 0 1-3.76 7.217c-2.48 4.279-5.741 9.017-9.033 11.39-4.344 3.118-5.65 6.952-4.735 10.162.896 3.145 3.865 5.387 7.37 5.387h3.229A2.627 2.627 0 0 1 24.5 43h2a4.627 4.627 0 0 0-4.627-4.627h-.576c.224-.336.582-.665 1.126-.918.994-.464 2.68-.7 5.35-.08a1 1 0 1 0 .453-1.948c-2.929-.68-5.11-.503-6.649.215-1.357.633-2.155 1.664-2.461 2.73h-.472c-2.647 0-4.805-1.683-5.446-3.935-.624-2.187.121-5.221 3.978-7.989l.002-.001c3.67-2.645 7.111-7.725 9.595-12.01a96 96 0 0 0 3.844-7.379l.278-.608.015-.034.005-.011zL30 6z" />
  <path d="M35.756 34.991c-.52 2.09-1.817 3.979-3.227 4.858L31.47 38.15c.882-.55 1.923-1.947 2.344-3.642.409-1.647.195-3.408-1.16-4.815l1.44-1.388c1.947 2.022 2.192 4.547 1.66 6.685" />
</svg>
